X: 1246
T: Kendine Niçin Emsâl Ararsın
C: Medenî Aziz Efendi
O: Turkey
F: http://compmusic.upf.edu/node/140
N: hicaz-uzzal--sarki--turkaksagi--kendine_nicin--medeni_aziz_efendi
N: makam= hicaz-uzzal
N: form= sarki
N: usul= turkaksagi = 5/8
M: 5/8
L: 1/16
K: C _7/8B ^f ^c 
Q: 1/4=102
%%MIDI tuningsystem comma53
ABcd e4 e=f | ed cdc4BA  | ABcd e2=fg fe | 
w:  ARANAĞME  |   |   | 
ed dcd4z2  | cde^1/4f g4 eg | =fe dfed cdcB  | 
w:   |   |   | 
ABcd e=fed cd | cB BAA4z2  | ABcd e4 e=f | 
w:   |   |  ARANAĞME  | 
ed cdc4BA  | ABcd e2=fg fe | ed dcd4z2  | 
w:   |   |   | 
cde^1/4f g4 eg | =fe dfed cdcB  | ABcd e=fed cd | 
w:   |   |   | 
cB BAA4z2  | d3e e4 e2 | =fe fed6  | eded c4 d2 | 
w:   |  Ken *  di ne   |  ni *  *  *  çin   |  em *  *  *  sâl  a  | 
e2 =feed cBA2  | d3e e4 e2 | =fe fed6  | \
w:  rar *  *  sın    |  Ken *  di ne   |  ni *  *  *  çin   | 
eded c4 d2 | 
w:  em *  *  *  sâl  a  | 
e2 =fee4z2  | d4 f4 g2 | a4=ba g=fe2  | \
w:  rar *  *  sın    |  İs min  gi  |  bi  pek   | 
f2ef g2=fe d2 | 
w:  nâ *  *  zik  *  *  e  | 
e3dg=f edcB  | A3G A4 B2 | cd efag =fed2  | 
w:  dâ *  sın    |  İs *  min  gi  |  bi  *  *  *  pek   | 
c2BA B2c2 d2 | cB BAA4z2  | g3a a4 a2 | \
w:  nâ *  *  zik  *  e  |  dâ *  *  *  sın    |  Ger *  çi  bi  | 
ag =baa4z2  | 
w:  raz  *  *  *  da   | 
g3a =b4 ba | a4=c'=b agfe  | d4 e4 f2 | \
w:  sen  *  bî ve  |  fâ sın    |  Ger çi  bi  | 
g2 feg4fe  | 
w:  raz  *  *  da   | 
f2e2 =bag2 a2 | gf fee4z2  | d4 f4 g2 | \
w:  sen  *  bî *  *  ve  |  fâ *  *  *  sın    |  İs min  gi  | 
a4=ba g=fe2  | 
w:  bi  pek   | 
f2ef g2=fe d2 | e3dg=f edcB  | A3G A4 B2 | \
w:  nâ *  *  zik  *  *  e  |  dâ *  sın    |  İs *  min  gi  | 
cd efag =fed2  | 
w:  bi  *  *  *  pek   | 
c2BA B2c2 d2 | cB BAA4z2  | |


